32x32/actions/document-replace.svg

<svg viewBox="0 0 32 32" xmlns="http://www.w3.org/2000/svg"><path d="m21 20.707 3.293 3.293-3.293 3.293c.013.025.707.707.707.707l3.293-3.293 3.293 3.293.707-.707-3.293-3.293 3.293-3.293-.707-.707-3.293 3.293-3.293-3.293zm-4-13.707h5v6h6v6h1v-7l-6-6h-7zm-5 21h8v-1h-7v-1h-1z" fill="#da4453"/><path d="m20 26v-16l-6-6h-11v22zm-16-1v-20h9v6h6v14z" fill="#555e70"/></svg>

<svg viewBox="0 0 32 32" xmlns="http://www.w3.org/2000/svg">
    <path d="M21 20.707 24.293 24 21 27.293c.013.025.707.707.707.707L25 24.707 28.293 28l.707-.707L25.707 24 29 20.707 28.293 20 25 23.293 21.707 20zM17 7h5v6h6v6h1v-7l-6-6h-7zm-5 21h8v-1h-7v-1h-1z" fill="#da4453"/>
    <path d="M20 26V10l-6-6H3v22zM4 25V5h9v6h6v14z" fill="#555e70"/>
</svg>
